svg/ai.svg

<svg width="18" height="15" viewBox="0 0 18 15" fill="none" xmlns="http://www.w3.org/2000/svg">
<rect width="18" height="15" fill="#F5F5F5"/>
<rect x="-175" y="-376" width="953" height="913" rx="16" fill="white"/>
<g clip-path="url(#clip0_0_1)">
<path d="M15.3008 0C16.4054 0 17.3008 0.895431 17.3008 2V10.2012C17.3008 11.3057 16.4054 12.2012 15.3008 12.2012H13.0449V14.3574L13.0439 14.3604C13.0439 14.3682 13.0428 14.376 13.042 14.3838C13.0409 14.3941 13.0394 14.4041 13.0371 14.4141C13.0276 14.4547 13.0083 14.4929 12.9785 14.5254C12.9752 14.529 12.9722 14.5327 12.9688 14.5361C12.9674 14.5375 12.9662 14.5397 12.9648 14.541C12.9583 14.5471 12.9504 14.5514 12.9434 14.5566C12.9394 14.5596 12.9357 14.5627 12.9316 14.5654C12.9265 14.5688 12.9214 14.5722 12.916 14.5752V14.5859L12.9092 14.5781C12.9018 14.582 12.8945 14.5858 12.8867 14.5889C12.8783 14.5922 12.87 14.5953 12.8613 14.5977C12.854 14.5997 12.8465 14.6012 12.8389 14.6025C12.8291 14.6043 12.8194 14.6049 12.8096 14.6055C12.8047 14.6058 12.7999 14.6074 12.7949 14.6074C12.7936 14.6074 12.7923 14.6065 12.791 14.6064C12.7831 14.6063 12.7754 14.6054 12.7676 14.6045C12.7422 14.6017 12.7178 14.5967 12.6953 14.5869C12.6794 14.58 12.6638 14.5718 12.6494 14.5615L12.6182 14.5342L12.6113 14.5273L10.4502 12.2012H1.99902C0.894678 12.2009 0 11.3056 0 10.2012V2C0 0.895431 0.895431 0 2 0H15.3008ZM7.21484 4.44922C6.95884 4.44922 6.70477 4.49527 6.4541 4.58594C6.2036 4.6766 5.9854 4.81539 5.79883 5.00195C5.61749 5.18862 5.49714 5.41497 5.43848 5.68164L6.51855 5.96191C6.58789 5.76458 6.68149 5.61996 6.79883 5.5293C6.91601 5.43359 7.06767 5.38583 7.25391 5.38574C7.43522 5.38574 7.58234 5.44422 7.69434 5.56152C7.81167 5.67352 7.87012 5.83647 7.87012 6.0498V6.20215L7.07812 6.29004C6.47562 6.35405 6.02766 6.47938 5.73438 6.66602C5.4412 6.85269 5.29395 7.15098 5.29395 7.56152C5.29395 7.94008 5.4194 8.24432 5.66992 8.47363C5.92584 8.70289 6.27283 8.81731 6.70996 8.81738C7.00329 8.81738 7.244 8.75893 7.43066 8.6416C7.61724 8.52428 7.75852 8.36373 7.85449 8.16113H7.8623C7.86764 8.35313 7.88942 8.53787 7.92676 8.71387H9.12598C9.09398 8.42587 9.07812 8.11334 9.07812 7.77734V5.91309C9.07804 5.68392 9.01711 5.45724 8.89453 5.2334C8.77719 5.00943 8.57658 4.82315 8.29395 4.67383C8.01674 4.52463 7.65718 4.44927 7.21484 4.44922ZM10.2627 4.56152V8.71387H11.4707V4.56152H10.2627ZM7.87012 7.10547C7.87012 7.28138 7.83338 7.43357 7.75879 7.56152C7.68951 7.68942 7.59323 7.7881 7.4707 7.85742C7.34804 7.92676 7.21431 7.96191 7.07031 7.96191C6.89968 7.9619 6.76343 7.92178 6.66211 7.8418C6.56082 7.7618 6.51074 7.65479 6.51074 7.52148C6.51076 7.34557 6.57424 7.20678 6.70215 7.10547C6.83546 6.99882 7.05697 6.92947 7.36621 6.89746L7.87012 6.84668V7.10547ZM10.8711 2.58594C10.6738 2.58594 10.5108 2.65188 10.3828 2.78516C10.2548 2.91316 10.1914 3.07363 10.1914 3.26562C10.1914 3.4576 10.2548 3.62059 10.3828 3.75391C10.5161 3.88188 10.6791 3.94531 10.8711 3.94531C11.0737 3.94531 11.2367 3.88188 11.3594 3.75391C11.4874 3.62059 11.5508 3.4576 11.5508 3.26562C11.5508 3.07363 11.4874 2.91316 11.3594 2.78516C11.2367 2.65187 11.0737 2.58594 10.8711 2.58594Z" fill="url(#paint0_linear_0_1)"/>
</g>
<defs>
<linearGradient id="paint0_linear_0_1" x1="0" y1="7.30371" x2="17.3008" y2="7.30371" gradientUnits="userSpaceOnUse">
<stop stop-color="#F6D365"/>
<stop offset="1" stop-color="#FDA085"/>
</linearGradient>
<clipPath id="clip0_0_1">
<rect width="17.3008" height="14.6074" fill="white"/>
</clipPath>
</defs>
</svg>

<svg fill="none" viewBox="0 0 18 15"><path fill="#F5F5F5" d="M0 0h18v15H0z"/><rect width="953" height="913" x="-175" y="-376" fill="white" rx="16"/><g clipPath="url(#a)"><path fill="url(#b)" d="M15.3 0a2 2 0 0 1 2 2v8.201a2 2 0 0 1-2 2h-2.255v2.156l-.001.003-.002.024-.005.03a.25.25 0 0 1-.059.111l-.01.011q0 .003-.003.005l-.022.016-.011.008-.016.01v.01l-.007-.007a.2.2 0 0 1-.1.027l-.014.002h-.004l-.023-.002a.25.25 0 0 1-.119-.043l-.03-.028-.008-.007-2.16-2.326H1.998a2 2 0 0 1-1.999-2V2a2 2 0 0 1 2-2zM7.216 4.45q-.385 0-.76.136-.377.136-.656.416a1.4 1.4 0 0 0-.36.68l1.08.28q.103-.296.28-.433a.7.7 0 0 1 .455-.143q.272 0 .44.176.177.168.176.488v.152l-.792.088q-.903.096-1.344.376-.44.28-.44.896 0 .567.376.912.384.343 1.04.343.44 0 .72-.175.281-.177.424-.48h.008q.009.287.065.552h1.199a9 9 0 0 1-.048-.937V5.913q0-.345-.183-.68-.177-.335-.601-.56-.415-.223-1.08-.224m3.048.112v4.152h1.208V4.562zM7.87 7.105a.9.9 0 0 1-.111.457.73.73 0 0 1-.288.295.8.8 0 0 1-.4.105.64.64 0 0 1-.409-.12.39.39 0 0 1-.151-.32q0-.264.191-.417.2-.16.664-.208l.504-.05zm3.001-4.52a.65.65 0 0 0-.488.2.65.65 0 0 0-.192.48q0 .29.192.489a.68.68 0 0 0 .488.191.65.65 0 0 0 .488-.191.68.68 0 0 0 .192-.488.65.65 0 0 0-.192-.48.63.63 0 0 0-.488-.2"/></g><defs><linearGradient id="b" x1="0" x2="17.301" y1="7.304" y2="7.304" gradientUnits="userSpaceOnUse"><stop stopColor="#F6D365"/><stop offset="1" stopColor="#FDA085"/></linearGradient><clipPath id="a"><path fill="white" d="M0 0h17.301v14.607H0z"/></clipPath></defs></svg>
